X: 2
T: The Crosses Of Annagh
R: reel
M: 4/4
L: 1/8
K: Ador
EAAG A2Bd|eggd edBA|~G3B ABGE|DEGB AGED|EAAG A2Bd|eggd edBA|GABd gedB|1 GABG A3G:|2 GABG A2Bd||ea~a2 bage|a2ba gedB|d^cde g2ga|bgaf gedg|ea~a2 bage|a2ba gedB|GABd gedB|1 GABG A2Bd:|2 GABG A3G||


Tune 1170	Setting 26708

